X: 13757
T: Forget Me Not
R: reel
M: 4/4
K: Cmajor
|:c2Bc AGED|CA, A,2 G,A,CD|EGce dcAG|Addc dfed|
c2Bc AGED|CA, A,2 G,A,CD|EGce dccA|GEDF ECC2:|
|:c2gc acgc|fcec dcAc|Gc c2 Gcea|gece d2eg|
aee2 gede|c2ec dcAc|EGce dccA|GEDF ECC2:|

